X: 072
M: C
L: 1/8
K: D
|:\
|: f |\
afab afdf | edfd e/e/e ef |
afab afdf | edef d/d/d df |\
afab afdf | edfd e/e/e ea |\
bfae fdec | dBAG d2df :|

